X: 8754
T: Cucanandy
R: slip jig
M: 9/8
K: Eminor
E4 E2D2 C2E2|G4 G2F2 E2c2|E4 E2D2 C2B,2|A2,A2 A2G2 A4:|
A2B2 c2A2 B2G2|E2G2 G2^F2 G4|A2B2 c2A2 B2G2|E2AA- A2G2 A4|
A2B2 c2A2 B2G2|E2G2 G2^F2 G4|E4 E2D2 C2B,2|A2,A2 A2G2 A4||
B4 B2A2 G2B2|d4 d2c2 B2g2|B4 B2A2 G2F2|E2e2 e2d2 e4:|
e2f2 g2e2 f2d2|B2d2 d2^c2 d4|e2f2 g2e2 f2d2|B2ee- e2d2 e4|
e2f2 g2e2 f2d2|B2d2 d2^c2 d4|B4 B2A2 G2F2|E2e2 e2d2 e4||

